src/actions/symbolic/debug-step-in-symbolic.svg

<svg width="16px" height="16px" version="1.1" viewBox="0 0 16 16" xmlns="http://www.w3.org/2000/svg">
 <path d="m4 1v1h8c1.108 0 2 0.892 2 2v8c0 1.108-0.892 2-2 2h-8v1h7.9609c1.6836 0 3.0391-1.3554 3.0391-3.0391v-7.9219c0-1.6836-1.3554-3.0391-3.0391-3.0391h-7.9609z" fill="#363636" fill-rule="evenodd" stop-color="#000000"/>
 <path d="m5.7578 3.7578-0.70703 0.70703 3.0352 3.0352h-6.0859v1h6.0859l-3.0352 3.0352 0.70703 0.70703 4.2422-4.2422-4.2422-4.2422z" fill="#363636" fill-rule="evenodd" stop-color="#000000"/>
</svg>

<svg xmlns="http://www.w3.org/2000/svg" width="16" height="16">
    <path fill="#050505" fill-opacity=".7" fill-rule="evenodd" d="M4 1v1h8c1.108 0 2 .892 2 2v8c0 1.108-.892 2-2 2H4v1h7.96A3.032 3.032 0 0 0 15 11.96V4.04a3.032 3.032 0 0 0-3.04-3.04H4z"/>
    <path fill="#050505" fill-opacity=".7" fill-rule="evenodd" d="m5.758 3.758-.707.707L8.086 7.5H2v1h6.086l-3.035 3.035.707.707L10 8 5.758 3.758z"/>
</svg>
